X:1464
T:"Girls, Will You Take Him"  (reel)  1464
C:after Mr. McNamara
N:(In my case, the answer was always, "Not on a flippin' bet!")
B:O'Neill's Music Of Ireland (The 1850) Lyon & Healy, Chicago, 1903 edition
Z:FROM O'NEILL'S TO NOTEWORTHY, FROM NOTEWORTHY TO ABC, MIDI AND .TXT BY VINCE
BRENNAN July 2003 (HTTP://WWW.SOSYOURMOM.COM)
I:abc2nwc
M:C|
L:1/8
K:D
D3E FGAF|D2(AF) GECE|D3E FGAB|cAdB cAGE|
D3E FGAF|D2(AF) GECE|D3E FGAB|cAdB cAGB||
Addc dfed|AcBd cAGB|Adde fdeB|cAdB cAGE|
Addc dfed|AcBd cdeg|agef {a}gfed|cAdB {d}cAGE B2|]
